X:77
T:Keep it up
T:As a thoiseach
R:Pipe Reel
S:Simon Fraser Collection
N:No.140
O:Scottish
M:C
L:1/8
K:E Minor
^c|dEBE dEB^c|dEBE FDD^c|dEBE GBeB|^cAdA FDDc|
dEBE dEB^c|dEBE FDD^c|dEBE GBeB|^cAcA FDD||f|
gebe geef|gebe fddf|gebe gefd|^cAdA FDDf|gebe beef|gebe fddf|
ebgb faeg|f^cdA FDD||

